X:3515
T:Merrily Kiss the Quaker
M:6/8
O:England
R:32-bar Jig
Z:Richard Robinson 
%%TUNEURL: http://www.leeds.ac.uk/music/Info/RRTuneBk/gettune/00000d0f.html
%%ID:00000d0f
K:D
def d2f | g2f e2d | def A2A | B2c d2A |\
def d2f | g2f e2d | def A2A | B2c d3  ::
d2f a2f | b2g a2f | d2f a2g | f2d fga |\
b2g efg | a2f d2A | def A2A | B2c d3  :|
